svg/SJJB-OpenStreetMapIcons/sport/jetski.svg

<?xml version="1.0" encoding="UTF-8" standalone="no"?>
<!-- Created with Inkscape (http://www.inkscape.org/) -->
<svg
   xmlns:dc="http://purl.org/dc/elements/1.1/"
   xmlns:cc="http://creativecommons.org/ns#"
   xmlns:rdf="http://www.w3.org/1999/02/22-rdf-syntax-ns#"
   xmlns:svg="http://www.w3.org/2000/svg"
   xmlns="http://www.w3.org/2000/svg"
   xmlns:sodipodi="http://sodipodi.sourceforge.net/DTD/sodipodi-0.dtd"
   xmlns:inkscape="http://www.inkscape.org/namespaces/inkscape"
   version="1.0"
   width="580"
   height="580"
   id="svg2"
   sodipodi:version="0.32"
   inkscape:version="0.46"
   sodipodi:docname="sport_jetski.svg"
   sodipodi:docbase="s:\Data\FacilityIcons"
   inkscape:output_extension="org.inkscape.output.svg.inkscape">
  <metadata
     id="metadata2975">
    <rdf:RDF>
      <cc:Work
         rdf:about="">
        <dc:format>image/svg+xml</dc:format>
        <dc:type
           rdf:resource="http://purl.org/dc/dcmitype/StillImage" />
			  <cc:license
           rdf:resource="http://web.resource.org/cc/PublicDomain" />
        <dc:language>en</dc:language>
      </cc:Work>
    </rdf:RDF>
  </metadata>
  <sodipodi:namedview
     inkscape:window-height="947"
     inkscape:window-width="1048"
     inkscape:pageshadow="2"
     inkscape:pageopacity="0.0"
     guidetolerance="10.0"
     gridtolerance="10.0"
     objecttolerance="10.0"
     borderopacity="1.0"
     bordercolor="#666666"
     pagecolor="#ffffff"
     id="base"
     inkscape:zoom="0.92167712"
     inkscape:cx="301.5186"
     inkscape:cy="281.19503"
     inkscape:window-x="91"
     inkscape:window-y="25"
     inkscape:current-layer="svg2"
     showgrid="false" />
  <defs
     id="defs4">
    <inkscape:perspective
       sodipodi:type="inkscape:persp3d"
       inkscape:vp_x="0 : 290 : 1"
       inkscape:vp_y="0 : 1000 : 0"
       inkscape:vp_z="580 : 290 : 1"
       inkscape:persp3d-origin="290 : 193.33333 : 1"
       id="perspective2441" />
    <inkscape:perspective
       id="perspective3452"
       inkscape:persp3d-origin="30 : 20 : 1"
       inkscape:vp_z="60 : 30 : 1"
       inkscape:vp_y="0 : 1000 : 0"
       inkscape:vp_x="0 : 30 : 1"
       sodipodi:type="inkscape:persp3d" />
    <symbol
       viewBox="244.5 110 489 219.9"
       id="symbol-university">
      <path
         id="path4460"
         d="M79,43l57,119c0,0,21-96,104-96s124,106,124,106l43-133l82-17L0,17L79,43z" />
      <path
         id="path4462"
         d="M94,176l-21,39"
         stroke-width="20"
         stroke="#000000"
         fill="none" />
      <path
         id="path4464"
         d="M300,19c0,10.5-22.6,19-50.5,19S199,29.5,199,19s22.6-19,50.5-19S300,8.5,300,19z" />
      <path
         id="path4466"
         d="M112,216l-16-38L64,88c0,0-9-8-4-35s16-24,16-24"
         stroke-width="20"
         stroke="#000000"
         ill="none" />
    </symbol>
    <inkscape:perspective
       id="perspective4471"
       inkscape:persp3d-origin="372.04724 : 350.78739 : 1"
       inkscape:vp_z="744.09448 : 526.18109 : 1"
       inkscape:vp_y="0 : 1000 : 0"
       inkscape:vp_x="0 : 526.18109 : 1"
       sodipodi:type="inkscape:persp3d" />
    <inkscape:perspective
       id="perspective4668"
       inkscape:persp3d-origin="6 : 4 : 1"
       inkscape:vp_z="12 : 6 : 1"
       inkscape:vp_y="0 : 1000 : 0"
       inkscape:vp_x="0 : 6 : 1"
       sodipodi:type="inkscape:persp3d" />
  </defs>
  <g
     id="g1327">
    <path
       d="M 66.275,1.768 C 24.94,1.768 1.704,23.139 1.704,66.804 L 1.704,516.927 C 1.704,557.771 22.599,579.156 63.896,579.156 L 515.92,579.156 C 557.227,579.156 578.149,558.841 578.149,516.927 L 578.149,66.804 C 578.149,24.203 557.227,1.768 514.628,1.768 C 514.624,1.768 66.133,1.625 66.275,1.768 z "
       style="fill:#111;stroke:#eee;stroke-width:3.40799999"
       id="path1329" />
  </g>
  <g
     id="layer3"
     inkscape:label="Layout"
     style="display:none;stroke:#757575;stroke-opacity:1"
     transform="matrix(48.14969,0,0,48.14969,-536.27327,-33.306752)">
    <rect
       style="fill:none;stroke:#757575;stroke-width:0.10000000000000001;stroke-miterlimit:4;stroke-dasharray:none;stroke-opacity:1;display:inline"
       id="rect4134"
       width="10"
       height="10"
       x="1"
       y="1" />
    <rect
       style="fill:none;stroke:#757575;stroke-width:0.10000000000000001;stroke-miterlimit:4;stroke-dasharray:none;stroke-opacity:1;display:inline"
       id="rect4136"
       width="8"
       height="8"
       x="2"
       y="2" />
  </g>
  <path
     transform="matrix(14.685839,0,0,14.685839,569.76584,1146.0639)"
     style="font-size:40px;font-style:normal;font-variant:normal;font-weight:normal;font-stretch:normal;text-align:start;line-height:125%;writing-mode:lr-tb;text-anchor:start;fill:#ffffff;fill-opacity:1;stroke:none;stroke-width:1px;stroke-linecap:butt;stroke-linejoin:miter;stroke-opacity:1;font-family:NPSPICT3;-inkscape-font-specification:NPSPICT3"
     d="M -24.501953,-66.668457 C -23.755712,-66.775044 -23.15594,-67.11501 -22.702637,-67.688354 C -22.249366,-68.261656 -22.076026,-68.921852 -22.182617,-69.668945 C -22.262387,-70.388322 -22.588924,-70.98138 -23.162231,-71.44812 C -23.73557,-71.91481 -24.395767,-72.094863 -25.142822,-71.988281 C -25.889092,-71.908503 -26.488863,-71.575251 -26.942139,-70.988525 C -27.395438,-70.40175 -27.568778,-69.748267 -27.462158,-69.028076 C -27.382417,-68.281798 -27.05588,-67.682026 -26.482544,-67.22876 C -25.909234,-66.775451 -25.249037,-66.588684 -24.501953,-66.668457 L -24.501953,-66.668457 z M -2.5024414,-54.068359 C -2.5293334,-54.095207 -6.2093427,-55.962067 -13.54248,-59.668945 L -16.342773,-63.307861 C -16.796083,-63.708234 -17.235943,-63.681786 -17.662354,-63.228516 L -17.662354,-63.228516 C -17.929302,-62.908675 -17.969178,-62.561995 -17.781982,-62.188477 L -15.701904,-59.509033 L -17.423096,-55.588135 L -21.942139,-56.70874 L -22.142334,-58.348145 L -18.422852,-58.788818 C -17.622906,-58.895414 -17.222922,-59.321846 -17.2229,-60.068115 C -17.222922,-60.414781 -17.36961,-60.721584 -17.662964,-60.988525 C -17.956361,-61.255437 -18.276388,-61.362045 -18.623047,-61.30835 L -22.423096,-60.868896 L -22.781982,-63.667969 C -22.862565,-64.388165 -23.196224,-64.98163 -23.782959,-65.448364 C -24.369725,-65.91506 -25.0228,-66.095114 -25.742188,-65.988525 C -26.48927,-65.908753 -27.089449,-65.575501 -27.542725,-64.98877 C -27.996023,-64.402 -28.182791,-63.748518 -28.103027,-63.02832 L -27.302246,-56.508545 C -27.19565,-55.654857 -26.782239,-55.001375 -26.062012,-54.548096 L -32.022705,-53.827881 L -33.862305,-49.228271 C -32.92888,-49.6547 -32.035733,-49.867916 -31.182861,-49.86792 C -30.356047,-49.867916 -29.542653,-49.681556 -28.742676,-49.308838 C -28.262543,-49.095619 -27.755952,-48.989011 -27.2229,-48.989014 C -26.689059,-48.989011 -26.18206,-49.095619 -25.701904,-49.308838 C -24.928806,-49.681556 -24.115819,-49.867916 -23.262939,-49.86792 C -22.755957,-49.867916 -22.082537,-49.721432 -21.242676,-49.428467 C -20.402851,-49.135495 -19.756286,-48.989011 -19.302979,-48.989014 C -18.769145,-48.989011 -18.262146,-49.095619 -17.781982,-49.308838 C -16.982037,-49.681556 -16.155622,-49.867916 -15.302734,-49.86792 C -14.768905,-49.867916 -14.255396,-49.78796 -13.762207,-49.628052 C -13.269069,-49.468136 -12.782416,-49.295 -12.302246,-49.108643 C -5.5021494,-50.921789 -2.1020877,-52.375238 -2.1020508,-53.468994 C -2.1020877,-53.7351 -2.2355511,-53.934888 -2.5024414,-54.068359 L -2.5024414,-54.068359 z M -7.3828125,-47.428955 C -7.8629869,-47.428954 -8.5296936,-47.282266 -9.3829346,-46.988892 C -10.236235,-46.695515 -10.889514,-46.548828 -11.342773,-46.548828 C -11.822944,-46.548828 -12.489651,-46.695515 -13.342896,-46.988892 C -14.196192,-47.282266 -14.849471,-47.428954 -15.302734,-47.428955 C -15.782901,-47.428954 -16.449608,-47.282266 -17.302856,-46.988892 C -18.156149,-46.695515 -18.822856,-46.548828 -19.302979,-46.548828 C -19.782327,-46.548828 -20.442117,-46.695515 -21.282349,-46.988892 C -22.122616,-47.282266 -22.782813,-47.428954 -23.262939,-47.428955 C -23.742284,-47.428954 -24.402074,-47.282266 -25.24231,-46.988892 C -26.082573,-46.695515 -26.742769,-46.548828 -27.2229,-46.548828 C -27.702241,-46.548828 -28.362031,-46.695515 -29.202271,-46.988892 C -30.04253,-47.282266 -30.702726,-47.428954 -31.182861,-47.428955 C -31.663012,-47.428954 -32.329719,-47.282266 -33.182983,-46.988892 C -34.03626,-46.695515 -34.702967,-46.548828 -35.183105,-46.548828 L -35.183105,-43.628906 C -34.702967,-43.628909 -34.03626,-43.775596 -33.182983,-44.06897 C -32.329719,-44.362347 -31.663012,-44.509035 -31.182861,-44.509033 C -30.729582,-44.509035 -30.076099,-44.362347 -29.222412,-44.06897 C -28.368744,-43.775596 -27.702241,-43.628909 -27.2229,-43.628906 C -26.742769,-43.628909 -26.082573,-43.775596 -25.24231,-44.06897 C -24.402074,-44.362347 -23.742284,-44.509035 -23.262939,-44.509033 C -22.782813,-44.509035 -22.122616,-44.362347 -21.282349,-44.06897 C -20.442117,-43.775596 -19.782327,-43.628909 -19.302979,-43.628906 C -18.822856,-43.628909 -18.156149,-43.775596 -17.302856,-44.06897 C -16.449608,-44.362347 -15.782901,-44.509035 -15.302734,-44.509033 C -14.849471,-44.509035 -14.196192,-44.362347 -13.342896,-44.06897 C -12.489651,-43.775596 -11.822944,-43.628909 -11.342773,-43.628906 C -10.889514,-43.628909 -10.236235,-43.775596 -9.3829346,-44.06897 C -8.5296936,-44.362347 -7.8629869,-44.509035 -7.3828125,-44.509033 C -6.9027014,-44.509035 -6.2427086,-44.362347 -5.402832,-44.06897 C -4.5630228,-43.775596 -3.90303,-43.628909 -3.4228516,-43.628906 L -3.4228516,-46.548828 C -3.90303,-46.548828 -4.5630228,-46.695515 -5.402832,-46.988892 C -6.2427086,-47.282266 -6.9027014,-47.428954 -7.3828125,-47.428955 L -7.3828125,-47.428955 z"
     id="flowRoot3192" />
</svg>

<svg xmlns="http://www.w3.org/2000/svg" viewBox="0 0 580 580"><path d="m66.28 1.768c-41.34 0-64.57 21.371-64.57 65.04v450.12c0 40.844 20.895 62.23 62.19 62.23h452.02c41.31 0 62.23-20.315 62.23-62.23v-450.12c0-42.601-20.922-65.04-63.52-65.04-.004 0-448.5-.143-448.35 0z" fill="#111" stroke="#eee" stroke-width="3.408"/><path transform="matrix(14.68584 0 0 14.68584 569.77 1146.06)" d="m-24.502-66.67c.746-.107 1.346-.447 1.799-1.02.453-.573.627-1.233.52-1.981-.08-.719-.406-1.312-.98-1.779-.573-.467-1.234-.647-1.981-.54-.746.08-1.346.413-1.799 1-.453.587-.627 1.24-.52 1.96.08.746.406 1.346.98 1.799.573.453 1.234.64 1.981.56m22 12.6c-.027-.027-3.707-1.894-11.04-5.601l-2.8-3.639c-.453-.4-.893-.374-1.32.079-.267.32-.307.667-.12 1.04l2.08 2.679-1.721 3.921-4.519-1.121-.2-1.639 3.719-.441c.8-.107 1.2-.533 1.2-1.279 0-.347-.147-.653-.44-.92-.293-.267-.613-.374-.96-.32l-3.8.439-.359-2.799c-.081-.72-.414-1.314-1-1.78-.587-.467-1.24-.647-1.959-.54-.747.08-1.347.413-1.801 1-.453.587-.64 1.24-.56 1.96l.801 6.52c.107.854.52 1.507 1.24 1.96l-5.961.72-1.84 4.6c.933-.426 1.827-.64 2.679-.64.827 0 1.64.186 2.44.559.48.213.987.32 1.52.32.534 0 1.041-.107 1.521-.32.773-.373 1.586-.559 2.439-.559.507 0 1.18.146 2.02.439.84.293 1.486.439 1.94.439.534 0 1.041-.107 1.521-.32.8-.373 1.626-.559 2.479-.559.534 0 1.047.08 1.541.24.493.16.98.333 1.46.519 6.8-1.813 10.2-3.267 10.2-4.36 0-.266-.134-.466-.4-.599m-4.88 6.639c-.48 0-1.147.147-2 .44-.853.293-1.507.44-1.96.44-.48 0-1.147-.147-2-.44-.853-.293-1.507-.44-1.96-.44-.48 0-1.147.147-2 .44-.853.293-1.52.44-2 .44-.479 0-1.139-.147-1.979-.44-.84-.293-1.5-.44-1.981-.44-.479 0-1.139.147-1.979.44-.84.293-1.5.44-1.981.44-.479 0-1.139-.147-1.979-.44-.84-.293-1.5-.44-1.981-.44-.48 0-1.147.147-2 .44-.853.293-1.52.44-2 .44v2.92c.48 0 1.147-.147 2-.44.853-.293 1.52-.44 2-.44.453 0 1.107.147 1.96.44.854.293 1.52.44 2 .44.48 0 1.14-.147 1.981-.44.84-.293 1.5-.44 1.979-.44.48 0 1.14.147 1.981.44.84.293 1.5.44 1.979.44.48 0 1.147-.147 2-.44.853-.293 1.52-.44 2-.44.453 0 1.107.147 1.96.44.853.293 1.52.44 2 .44.453 0 1.107-.147 1.96-.44.853-.293 1.52-.44 2-.44.48 0 1.14.147 1.98.44.84.293 1.5.44 1.98.44v-2.92c-.48 0-1.14-.147-1.98-.44-.84-.293-1.5-.44-1.98-.44" fill="#fff"/></svg>
